static/images/dressform.svg

<svg xmlns="http://www.w3.org/2000/svg" xmlns:xlink="http://www.w3.org/1999/xlink" viewBox="0 0 30 75" version="1.1" x="0px" y="0px"><title>Group 27</title><desc>Created with Sketch.</desc><g stroke="none" stroke-width="1" fill="none" fill-rule="evenodd"><g transform="translate(-617.000000, -633.000000)" fill="#000000"><g transform="translate(617.000000, 633.000000)"><path d="M12.085,2 C12.038,2 12,2.038 12,2.085 L12,4.991 C12,6.615 10.958,8.021 9.408,8.488 C8.17,8.861 6.37,9.45 4.818,10.14 C3.138,10.886 2.317,12.79 2.91,14.568 L6.115,24.184 C7.366,27.935 7.366,32.066 6.115,35.816 L5.196,38.575 C4.975,39.239 4.926,39.899 5.055,40.486 C5.286,41.533 5.886,42 7,42 L23,42 C24.114,42 24.714,41.533 24.945,40.486 C25.074,39.899 25.025,39.239 24.804,38.575 L23.885,35.816 C22.634,32.066 22.634,27.935 23.885,24.184 L27.09,14.568 C27.683,12.79 26.862,10.886 25.182,10.139 C23.63,9.45 21.83,8.861 20.592,8.488 C19.042,8.021 18,6.615 18,4.991 L18,2.085 C18,2.038 17.962,2 17.915,2 L12.085,2 Z M23,44 L7,44 C4.955,44 3.534,42.876 3.102,40.917 C2.895,39.978 2.963,38.949 3.298,37.942 L4.218,35.184 C5.333,31.841 5.333,28.159 4.218,24.816 L1.013,15.201 C0.093,12.44 1.379,9.479 4.005,8.312 C5.652,7.58 7.538,6.962 8.831,6.573 C9.53,6.362 10,5.727 10,4.991 L10,2.085 C10,0.936 10.936,0 12.085,0 L17.915,0 C19.065,0 20,0.936 20,2.085 L20,4.991 C20,5.727 20.47,6.362 21.17,6.573 C22.462,6.962 24.348,7.58 25.995,8.312 C28.621,9.479 29.907,12.44 28.987,15.201 L25.782,24.816 C24.668,28.159 24.668,31.841 25.782,35.184 L26.702,37.942 C27.037,38.949 27.105,39.978 26.898,40.917 C26.466,42.876 25.045,44 23,44 L23,44 Z"/><path d="M14.9659,13.0352 C14.2989,13.0352 13.6369,13.0072 12.9939,12.9532 C8.8759,12.6072 5.9199,11.2812 5.0859,9.4062 L6.9139,8.5942 C7.4149,9.7202 9.9839,10.6932 13.1609,10.9602 C17.7379,11.3422 21.9459,10.2872 23.1669,8.4472 L24.8339,9.5532 C23.1969,12.0182 18.9829,13.0352 14.9659,13.0352"/><path d="M15,60 C14.448,60 14,59.552 14,59 L14,43 C14,42.448 14.448,42 15,42 C15.552,42 16,42.448 16,43 L16,59 C16,59.552 15.552,60 15,60"/><path d="M4,60 C3.448,60 3,59.552 3,59 C3,58.448 3.448,58 4,58 C9.514,58 14,53.514 14,48 C14,47.448 14.448,47 15,47 C15.552,47 16,47.448 16,48 C16,54.617 10.617,60 4,60"/><path d="M26.0001,60 C19.3831,60 14.0001,54.617 14.0001,48 C14.0001,47.448 14.4481,47 15.0001,47 C15.5521,47 16.0001,47.448 16.0001,48 C16.0001,53.514 20.4861,58 26.0001,58 C26.5521,58 27.0001,58.448 27.0001,59 C27.0001,59.552 26.5521,60 26.0001,60"/></g></g></g><text x="0" y="75" fill="#000000" font-size="5px" font-weight="bold" font-family="'Helvetica Neue', Helvetica, Arial-Unicode, Arial, Sans-serif">Created by Oliviu Stoian</text><text x="0" y="80" fill="#000000" font-size="5px" font-weight="bold" font-family="'Helvetica Neue', Helvetica, Arial-Unicode, Arial, Sans-serif">from the Noun Project</text></svg>

<?xml version="1.0" encoding="UTF-8" standalone="no"?>
<svg
   xmlns:dc="http://purl.org/dc/elements/1.1/"
   xmlns:cc="http://creativecommons.org/ns#"
   xmlns:rdf="http://www.w3.org/1999/02/22-rdf-syntax-ns#"
   xmlns:svg="http://www.w3.org/2000/svg"
   xmlns="http://www.w3.org/2000/svg"
   xmlns:sodipodi="http://sodipodi.sourceforge.net/DTD/sodipodi-0.dtd"
   xmlns:inkscape="http://www.inkscape.org/namespaces/inkscape"
   viewBox="0 0 28.566277 60"
   version="1.1"
   x="0px"
   y="0px"
   id="svg26"
   sodipodi:docname="dressform.svg"
   width="28.566277"
   height="60"
   inkscape:version="0.92.1 r15371">
  <metadata
     id="metadata32">
    <rdf:RDF>
      <cc:Work
         rdf:about="">
        <dc:format>image/svg+xml</dc:format>
        <dc:type
           rdf:resource="http://purl.org/dc/dcmitype/StillImage" />
        <dc:title>Group 27</dc:title>
      </cc:Work>
    </rdf:RDF>
  </metadata>
  <defs
     id="defs30" />
  <sodipodi:namedview
     pagecolor="#ffffff"
     bordercolor="#666666"
     borderopacity="1"
     objecttolerance="10"
     gridtolerance="10"
     guidetolerance="10"
     inkscape:pageopacity="0"
     inkscape:pageshadow="2"
     inkscape:window-width="640"
     inkscape:window-height="480"
     id="namedview28"
     showgrid="false"
     fit-margin-top="0"
     fit-margin-left="0"
     fit-margin-right="0"
     fit-margin-bottom="0"
     inkscape:zoom="3.1466667"
     inkscape:cx="14.283138"
     inkscape:cy="22.5"
     inkscape:window-x="0"
     inkscape:window-y="25"
     inkscape:window-maximized="0"
     inkscape:current-layer="svg26" />
  <title
     id="title2">Group 27</title>
  <desc
     id="desc4">Created with Sketch.</desc>
  <g
     id="g20"
     style="fill:none;fill-rule:evenodd;stroke:none;stroke-width:1"
     transform="translate(-0.71686171)">
    <g
       transform="translate(-617,-633)"
       id="g18"
       style="fill:#000000">
      <g
         transform="translate(617,633)"
         id="g16">
        <path
           d="M 12.085,2 C 12.038,2 12,2.038 12,2.085 V 4.991 C 12,6.615 10.958,8.021 9.408,8.488 8.17,8.861 6.37,9.45 4.818,10.14 3.138,10.886 2.317,12.79 2.91,14.568 l 3.205,9.616 c 1.251,3.751 1.251,7.882 0,11.632 L 5.196,38.575 C 4.975,39.239 4.926,39.899 5.055,40.486 5.286,41.533 5.886,42 7,42 h 16 c 1.114,0 1.714,-0.467 1.945,-1.514 0.129,-0.587 0.08,-1.247 -0.141,-1.911 l -0.919,-2.759 c -1.251,-3.75 -1.251,-7.881 0,-11.632 L 27.09,14.568 C 27.683,12.79 26.862,10.886 25.182,10.139 23.63,9.45 21.83,8.861 20.592,8.488 19.042,8.021 18,6.615 18,4.991 V 2.085 C 18,2.038 17.962,2 17.915,2 Z M 23,44 H 7 C 4.955,44 3.534,42.876 3.102,40.917 2.895,39.978 2.963,38.949 3.298,37.942 l 0.92,-2.758 c 1.115,-3.343 1.115,-7.025 0,-10.368 L 1.013,15.201 C 0.093,12.44 1.379,9.479 4.005,8.312 5.652,7.58 7.538,6.962 8.831,6.573 9.53,6.362 10,5.727 10,4.991 V 2.085 C 10,0.936 10.936,0 12.085,0 h 5.83 C 19.065,0 20,0.936 20,2.085 v 2.906 c 0,0.736 0.47,1.371 1.17,1.582 1.292,0.389 3.178,1.007 4.825,1.739 2.626,1.167 3.912,4.128 2.992,6.889 l -3.205,9.615 c -1.114,3.343 -1.114,7.025 0,10.368 l 0.92,2.758 c 0.335,1.007 0.403,2.036 0.196,2.975 C 26.466,42.876 25.045,44 23,44 Z"
           id="path6"
           inkscape:connector-curvature="0" />
        <path
           d="m 14.9659,13.0352 c -0.667,0 -1.329,-0.028 -1.972,-0.082 -4.118,-0.346 -7.074,-1.672 -7.908,-3.547 l 1.828,-0.812 c 0.501,1.126 3.07,2.099 6.247,2.366 4.577,0.382 8.785,-0.673 10.006,-2.513 l 1.667,1.106 c -1.637,2.465 -5.851,3.482 -9.868,3.482"
           id="path8"
           inkscape:connector-curvature="0" />
        <path
           d="m 15,60 c -0.552,0 -1,-0.448 -1,-1 V 43 c 0,-0.552 0.448,-1 1,-1 0.552,0 1,0.448 1,1 v 16 c 0,0.552 -0.448,1 -1,1"
           id="path10"
           inkscape:connector-curvature="0" />
        <path
           d="m 4,60 c -0.552,0 -1,-0.448 -1,-1 0,-0.552 0.448,-1 1,-1 5.514,0 10,-4.486 10,-10 0,-0.552 0.448,-1 1,-1 0.552,0 1,0.448 1,1 0,6.617 -5.383,12 -12,12"
           id="path12"
           inkscape:connector-curvature="0" />
        <path
           d="m 26.0001,60 c -6.617,0 -12,-5.383 -12,-12 0,-0.552 0.448,-1 1,-1 0.552,0 1,0.448 1,1 0,5.514 4.486,10 10,10 0.552,0 1,0.448 1,1 0,0.552 -0.448,1 -1,1"
           id="path14"
           inkscape:connector-curvature="0" />
      </g>
    </g>
  </g>
</svg>
